X:786
L:1/8
M:4/4
K:C
 .abc || |[M:6/8][K:D] (3:2:2TA/G/ | FA(D F)ED | FA(D F)ED | GBG FAF | EFE EFG | FA(D F)ED | 
 FA(D F)ED | dcB AFA | DED D2 :: A | d2 e Tf2 d | edB TBAF | ABA ABd | efd edB | d2 e Tf2 d | 
 edB TBAF | dcB AFA | DED D2 :: A | d>cd efg | fed cBA | (B<d)B AFD | EFE E2 A | d>cd efg | 
 fed cBA | (B<d)B AFA | DED D2 :|

